X: 4140
M: C
L: 1/8
K: Am
|:\
(3(cBA) (eA) (3(cBA) (eA) |
(3(cBA) (ec) dBGB |\
(3(cBA) (eA) (3(cBA) (eA) | a^fge dBGB ::\
ceAe ceAe | ceAe dBGB |\
ceAe ceAe | a^fge dB"_D.C."GB :|


